images/unlink.svg

<?xml version="1.0" encoding="UTF-8" standalone="no"?>
<svg width="15px" height="15px" viewBox="0 0 15 15" version="1.1" xmlns="http://www.w3.org/2000/svg" xmlns:xlink="http://www.w3.org/1999/xlink">
    <!-- Generator: Sketch 40.3 (33839) - http://www.bohemiancoding.com/sketch -->
    <title>unlink</title>
    <desc>Created with Sketch.</desc>
    <defs></defs>
    <g id="Page-1" stroke="none" stroke-width="1" fill="none" fill-rule="evenodd">
        <g id="unlink" fill="#000000">
            <g id="Capa_1">
                <g id="Group">
                    <path d="M13.9562727,1.03663636 C12.5740909,-0.345545455 10.3249091,-0.345 8.94245455,1.03663636 L6.43554545,3.54354545 C6.22254545,3.75654545 6.22254545,4.10181818 6.43554545,4.31481818 C6.64854545,4.52781818 6.99381818,4.52781818 7.20681818,4.31481818 L9.71372727,1.80790909 C10.1749091,1.347 10.7912727,1.09281818 11.4490909,1.09281818 C12.1071818,1.09281818 12.7235455,1.347 13.1847273,1.80818182 C13.6459091,2.26936364 13.9000909,2.88572727 13.9000909,3.54381818 C13.9000909,4.20163636 13.6459091,4.818 13.1847273,5.27918182 L9.90681818,8.55790909 C8.94954545,9.51463636 7.39254545,9.51463636 6.43527273,8.55790909 C6.22227273,8.34490909 5.877,8.34490909 5.664,8.55790909 C5.451,8.77090909 5.451,9.11645455 5.664,9.32918182 C6.35509091,10.0202727 7.263,10.3658182 8.17090909,10.3658182 C9.07881818,10.3658182 9.98672727,10.0202727 10.6778182,9.32918182 L13.9562727,6.05072727 C14.6236364,5.38363636 14.9912727,4.49318182 14.9912727,3.54381818 C14.9912727,2.59418182 14.6236364,1.704 13.9562727,1.03663636 L13.9562727,1.03663636 Z" id="Shape"></path>
                    <path d="M7.39963636,11.0645455 L5.27836364,13.1858182 C4.81718182,13.647 4.20081818,13.9011818 3.54272727,13.9011818 C2.88490909,13.9011818 2.26827273,13.647 1.80709091,13.1858182 C0.850090909,12.2288182 0.850090909,10.6715455 1.80709091,9.71454545 L4.89272727,6.62890909 C5.35390909,6.168 5.97027273,5.91381818 6.62836364,5.91381818 C7.28618182,5.91381818 7.90254545,6.168 8.36372727,6.62890909 C8.57672727,6.84190909 8.922,6.84190909 9.135,6.62890909 C9.348,6.41590909 9.348,6.07063636 9.135,5.85763636 C7.75309091,4.47572727 5.50390909,4.47545455 4.12118182,5.85763636 L1.03554545,8.94354545 C0.368454545,9.61063636 0.000818181818,10.5010909 0.000818181818,11.4504545 C0.000818181818,12.3995455 0.368454545,13.29 1.03581818,13.9570909 C1.70290909,14.6244545 2.59336364,14.9920909 3.54245455,14.9920909 C4.49181818,14.9920909 5.38227273,14.6244545 6.04936364,13.9570909 L8.17063636,11.8358182 C8.38363636,11.6228182 8.38363636,11.2775455 8.17063636,11.0645455 C7.95763636,10.8515455 7.61263636,10.8515455 7.39963636,11.0645455 L7.39963636,11.0645455 Z" id="Shape"></path>
                    <path d="M9.27354545,12.0019091 C8.97245455,12.0019091 8.72809091,12.2462727 8.72809091,12.5473636 L8.72809091,14.1837273 C8.72809091,14.4848182 8.97245455,14.7291818 9.27354545,14.7291818 C9.57463636,14.7291818 9.819,14.4848182 9.819,14.1837273 L9.819,12.5473636 C9.819,12.246 9.57490909,12.0019091 9.27354545,12.0019091 L9.27354545,12.0019091 Z" id="Shape"></path>
                    <path d="M11.2295455,11.6162727 C11.0165455,11.4032727 10.6712727,11.4032727 10.4582727,11.6162727 C10.2452727,11.8292727 10.2452727,12.1745455 10.4582727,12.3875455 L11.6151818,13.5444545 C11.7218182,13.6510909 11.8611818,13.7042727 12.0008182,13.7042727 C12.1404545,13.7042727 12.2798182,13.6510909 12.3864545,13.5444545 C12.5994545,13.3314545 12.5994545,12.9861818 12.3864545,12.7731818 L11.2295455,11.6162727 L11.2295455,11.6162727 Z" id="Shape"></path>
                    <path d="M12.5367273,9.82009091 L10.9003636,9.82009091 C10.5992727,9.82009091 10.3549091,10.0644545 10.3549091,10.3655455 C10.3549091,10.6666364 10.5992727,10.911 10.9003636,10.911 L12.5367273,10.911 C12.8378182,10.911 13.0821818,10.6666364 13.0821818,10.3655455 C13.0821818,10.0644545 12.8380909,9.82009091 12.5367273,9.82009091 L12.5367273,9.82009091 Z" id="Shape"></path>
                    <path d="M4.90990909,3.54736364 C5.211,3.54736364 5.45536364,3.303 5.45536364,3.00190909 L5.45536364,1.36554545 C5.45536364,1.06445455 5.211,0.820090909 4.90990909,0.820090909 C4.60881818,0.820090909 4.36445455,1.06445455 4.36445455,1.36554545 L4.36445455,3.00190909 C4.36445455,3.303 4.60881818,3.54736364 4.90990909,3.54736364 L4.90990909,3.54736364 Z" id="Shape"></path>
                    <path d="M2.88790909,3.933 C2.99454545,4.03963636 3.13390909,4.09281818 3.27354545,4.09281818 C3.41318182,4.09281818 3.55254545,4.03963636 3.65918182,3.933 C3.87218182,3.72 3.87218182,3.37472727 3.65918182,3.16172727 L2.50227273,2.00454545 C2.28927273,1.79154545 1.944,1.79154545 1.731,2.00454545 C1.518,2.21754545 1.518,2.56281818 1.731,2.77581818 L2.88790909,3.933 L2.88790909,3.933 Z" id="Shape"></path>
                    <path d="M1.62763636,5.72918182 L3.264,5.72918182 C3.56509091,5.72918182 3.80945455,5.48481818 3.80945455,5.18372727 C3.80945455,4.88263636 3.56509091,4.63827273 3.264,4.63827273 L1.62763636,4.63827273 C1.32654545,4.63827273 1.08218182,4.88263636 1.08218182,5.18372727 C1.08218182,5.48481818 1.32654545,5.72918182 1.62763636,5.72918182 L1.62763636,5.72918182 Z" id="Shape"></path>
                </g>
            </g>
        </g>
    </g>
</svg>

<svg width="15" height="15" xmlns="http://www.w3.org/2000/svg"><g fill="#000" fill-rule="evenodd"><path d="M13.956 1.037a3.55 3.55 0 0 0-5.014 0L6.436 3.544a.545.545 0 1 0 .77.77l2.508-2.506a2.438 2.438 0 0 1 1.735-.715c.658 0 1.275.254 1.736.715.46.461.715 1.078.715 1.736 0 .658-.254 1.274-.715 1.735L9.907 8.558a2.458 2.458 0 0 1-3.472 0 .545.545 0 1 0-.771.771 3.534 3.534 0 0 0 2.507 1.037c.908 0 1.816-.346 2.507-1.037l3.278-3.278a3.52 3.52 0 0 0 1.035-2.507c0-.95-.367-1.84-1.035-2.507z"/><path d="M7.4 11.065l-2.122 2.12a2.437 2.437 0 0 1-1.735.716 2.437 2.437 0 0 1-1.736-.715 2.457 2.457 0 0 1 0-3.471l3.086-3.086a2.438 2.438 0 0 1 1.735-.715c.658 0 1.275.254 1.736.715a.545.545 0 1 0 .771-.771 3.55 3.55 0 0 0-5.014 0L1.036 8.944A3.52 3.52 0 0 0 0 11.45c0 .95.367 1.84 1.035 2.507a3.52 3.52 0 0 0 2.506 1.035c.95 0 1.84-.368 2.507-1.035l2.122-2.121a.545.545 0 0 0-.771-.771zM9.274 12.002a.546.546 0 0 0-.546.545v1.637a.546.546 0 0 0 1.091 0v-1.637a.545.545 0 0 0-.545-.545zM11.23 11.616a.545.545 0 1 0-.772.772l1.157 1.156a.543.543 0 0 0 .771 0 .545.545 0 0 0 0-.77l-1.156-1.158zM12.537 9.82H10.9a.546.546 0 0 0 0 1.091h1.637a.546.546 0 0 0 0-1.09zM4.91 3.547a.546.546 0 0 0 .545-.545V1.366a.546.546 0 0 0-1.09 0v1.636c0 .301.244.545.545.545zM2.888 3.933a.543.543 0 0 0 .771 0 .545.545 0 0 0 0-.771L2.502 2.005a.545.545 0 1 0-.771.77l1.157 1.158zM1.628 5.73h1.636a.546.546 0 0 0 0-1.092H1.628a.546.546 0 0 0 0 1.091z"/></g></svg>
